assets/img/braze_icons/message-heart-circle.svg

<svg fill="none" height="24" viewBox="0 0 24 24" width="24" xmlns="http://www.w3.org/2000/svg"><path clip-rule="evenodd" d="m12.5 2c-5.24666 0-9.49995 4.25329-9.49995 9.5 0 1.06.17399 2.0814.49575 3.036.05659.1679.08991.2673.11156.3406l.00708.0246-.00375.0078c-.0257.053-.0639.1242-.13536.2565l-1.65188 3.0575c-.10238.1894-.2092.3871-.28267.5589-.07302.1708-.1913.4842-.1331.8557.06822.4354.3245.8188.70078 1.0483.32101.1959.6558.2064.84154.2042.18688-.0022.4103-.0253.62447-.0475l5.15496-.5329c.08256-.0085.12572-.0129.15734-.0153l.00407-.0003.01237.0043c.03885.014.09154.0342.18249.0693 1.0609.4087 2.2127.6323 3.4143.6323 5.2468 0 9.5-4.2533 9.5-9.5 0-5.24671-4.2532-9.5-9.5-9.5zm-3.53039 6.58223c1.12729-.95128 2.62759-.67183 3.52729.36702.8997-1.03885 2.3807-1.30829 3.5273-.36702 1.1467.94127 1.286 2.54177.4007 3.66687-.5484.697-1.925 1.97-2.893 2.8379-.3556.3187-.5334.4781-.7468.5423-.183.0551-.3933.0551-.5764 0-.2134-.0642-.3911-.2236-.7467-.5423-.9681-.8679-2.34467-2.1409-2.89311-2.8379-.88525-1.1251-.72655-2.7156.40072-3.66687z" fill="#801ed7" fill-rule="evenodd"/></svg>

<svg width="24" height="24" viewBox="0 0 24 24" fill="none" xmlns="http://www.w3.org/2000/svg">
<path fill-rule="evenodd" clip-rule="evenodd" d="M12.5 2C7.25334 2 3.00005 6.25329 3.00005 11.5C3.00005 12.56 3.17404 13.5814 3.4958 14.536C3.55239 14.7039 3.58571 14.8033 3.60736 14.8766L3.61444 14.9012L3.61069 14.909C3.58499 14.962 3.54679 15.0332 3.47533 15.1655L1.82345 18.223C1.72107 18.4124 1.61425 18.6101 1.54078 18.7819C1.46776 18.9527 1.34948 19.2661 1.40768 19.6376C1.4759 20.073 1.73218 20.4564 2.10846 20.6859C2.42947 20.8818 2.76426 20.8923 2.95 20.8901C3.13688 20.8879 3.3603 20.8648 3.57447 20.8426L8.72943 20.3097C8.81199 20.3012 8.85515 20.2968 8.88677 20.2944L8.89084 20.2941L8.90321 20.2984C8.94206 20.3124 8.99475 20.3326 9.0857 20.3677C10.1466 20.7764 11.2984 21 12.5 21C17.7468 21 22 16.7467 22 11.5C22 6.25329 17.7468 2 12.5 2ZM8.96961 8.58223C10.0969 7.63095 11.5972 7.9104 12.4969 8.94925C13.3966 7.9104 14.8776 7.64096 16.0242 8.58223C17.1709 9.5235 17.3102 11.124 16.4249 12.2491C15.8765 12.9461 14.4999 14.2191 13.5319 15.087C13.1763 15.4057 12.9985 15.5651 12.7851 15.6293C12.6021 15.6844 12.3918 15.6844 12.2087 15.6293C11.9953 15.5651 11.8176 15.4057 11.462 15.087C10.4939 14.2191 9.11733 12.9461 8.56889 12.2491C7.68364 11.124 7.84234 9.5335 8.96961 8.58223Z" fill="#801ED7"/>
</svg>
